pldoc/static/images/icons/table.svg

<?xml version="1.0" encoding="utf-8"?>
<!-- Generated by IcoMoon.io -->
<!DOCTYPE svg PUBLIC "-//W3C//DTD SVG 1.1//EN" "http://www.w3.org/Graphics/SVG/1.1/DTD/svg11.dtd">
<svg version="1.1" xmlns="http://www.w3.org/2000/svg" xmlns:xlink="http://www.w3.org/1999/xlink" width="13" height="14" viewBox="0 0 13 14">
<path fill="#444444" d="M4 10.75v-1.5q0-0.109-0.070-0.18t-0.18-0.070h-2.5q-0.109 0-0.18 0.070t-0.070 0.18v1.5q0 0.109 0.070 0.18t0.18 0.070h2.5q0.109 0 0.18-0.070t0.070-0.18zM4 7.75v-1.5q0-0.109-0.070-0.18t-0.18-0.070h-2.5q-0.109 0-0.18 0.070t-0.070 0.18v1.5q0 0.109 0.070 0.18t0.18 0.070h2.5q0.109 0 0.18-0.070t0.070-0.18zM8 10.75v-1.5q0-0.109-0.070-0.18t-0.18-0.070h-2.5q-0.109 0-0.18 0.070t-0.070 0.18v1.5q0 0.109 0.070 0.18t0.18 0.070h2.5q0.109 0 0.18-0.070t0.070-0.18zM4 4.75v-1.5q0-0.109-0.070-0.18t-0.18-0.070h-2.5q-0.109 0-0.18 0.070t-0.070 0.18v1.5q0 0.109 0.070 0.18t0.18 0.070h2.5q0.109 0 0.18-0.070t0.070-0.18zM8 7.75v-1.5q0-0.109-0.070-0.18t-0.18-0.070h-2.5q-0.109 0-0.18 0.070t-0.070 0.18v1.5q0 0.109 0.070 0.18t0.18 0.070h2.5q0.109 0 0.18-0.070t0.070-0.18zM12 10.75v-1.5q0-0.109-0.070-0.18t-0.18-0.070h-2.5q-0.109 0-0.18 0.070t-0.070 0.18v1.5q0 0.109 0.070 0.18t0.18 0.070h2.5q0.109 0 0.18-0.070t0.070-0.18zM8 4.75v-1.5q0-0.109-0.070-0.18t-0.18-0.070h-2.5q-0.109 0-0.18 0.070t-0.070 0.18v1.5q0 0.109 0.070 0.18t0.18 0.070h2.5q0.109 0 0.18-0.070t0.070-0.18zM12 7.75v-1.5q0-0.109-0.070-0.18t-0.18-0.070h-2.5q-0.109 0-0.18 0.070t-0.070 0.18v1.5q0 0.109 0.070 0.18t0.18 0.070h2.5q0.109 0 0.18-0.070t0.070-0.18zM12 4.75v-1.5q0-0.109-0.070-0.18t-0.18-0.070h-2.5q-0.109 0-0.18 0.070t-0.070 0.18v1.5q0 0.109 0.070 0.18t0.18 0.070h2.5q0.109 0 0.18-0.070t0.070-0.18zM13 2.25v8.5q0 0.516-0.367 0.883t-0.883 0.367h-10.5q-0.516 0-0.883-0.367t-0.367-0.883v-8.5q0-0.516 0.367-0.883t0.883-0.367h10.5q0.516 0 0.883 0.367t0.367 0.883z"></path>
</svg>

<svg xmlns="http://www.w3.org/2000/svg" width="13" height="14" viewBox="0 0 13 14"><path fill="#444" d="M4 10.75v-1.5q0-.11-.07-.18T3.75 9h-2.5q-.11 0-.18.07T1 9.25v1.5q0 .11.07.18t.18.07h2.5q.11 0 .18-.07t.07-.18zm0-3v-1.5q0-.11-.07-.18T3.75 6h-2.5q-.11 0-.18.07T1 6.25v1.5q0 .11.07.18t.18.07h2.5q.11 0 .18-.07T4 7.75zm4 3v-1.5q0-.11-.07-.18T7.75 9h-2.5q-.11 0-.18.07T5 9.25v1.5q0 .11.07.18t.18.07h2.5q.11 0 .18-.07t.07-.18zm-4-6v-1.5q0-.11-.07-.18T3.75 3h-2.5q-.11 0-.18.07T1 3.25v1.5q0 .11.07.18t.18.07h2.5q.11 0 .18-.07T4 4.75zm4 3v-1.5q0-.11-.07-.18T7.75 6h-2.5q-.11 0-.18.07T5 6.25v1.5q0 .11.07.18t.18.07h2.5q.11 0 .18-.07T8 7.75zm4 3v-1.5q0-.11-.07-.18T11.75 9h-2.5q-.11 0-.18.07T9 9.25v1.5q0 .11.07.18t.18.07h2.5q.11 0 .18-.07t.07-.18zm-4-6v-1.5q0-.11-.07-.18T7.75 3h-2.5q-.11 0-.18.07T5 3.25v1.5q0 .11.07.18t.18.07h2.5q.11 0 .18-.07T8 4.75zm4 3v-1.5q0-.11-.07-.18T11.75 6h-2.5q-.11 0-.18.07T9 6.25v1.5q0 .11.07.18t.18.07h2.5q.11 0 .18-.07t.07-.18zm0-3v-1.5q0-.11-.07-.18T11.75 3h-2.5q-.11 0-.18.07T9 3.25v1.5q0 .11.07.18t.18.07h2.5q.11 0 .18-.07t.07-.18zm1-2.5v8.5q0 .516-.367.883T11.75 12H1.25q-.516 0-.883-.367T0 10.75v-8.5q0-.516.367-.883T1.25 1h10.5q.516 0 .883.367T13 2.25z"/></svg>
